X:3108
T:Johnny Cope. HSJJ.027
O:england
M:4/4
L:1/8
Q:180
S:HSJ Jackson,Wyresdale,Lancs.1823
R:Air
A:Lancashire
H:1823
K:C
E2|A4ABcd|e2A2{B}A2GE|G4GABc|d2G2BAGF|A4ABcd|e2A2BAGF|G2g2~edcB|A4A2:|
|:AB|c3dc2G2|cdefg4|B2G2d2G2|Bcde {e}d2cB|cBcd efga|~gedcB2AB|G2g2edcB|
A4A2:|
|:eg|a4~a2g-a|b2a2a2ge|degag3a|b2abg2eg|a4a2ga|b2a4ge|g2d2~edcB|A4A2:|
|:E2|AGAB cBcd|e2A2BAGF|GFGAB2ge|dedcB2AG|cBcd efga|gedcB2AB|G2g2edcB|A
4A2:|]


